libs/ui/packages/crypto-icons/src/svg/UNITY.svg

<svg width="24" height="24" viewBox="0 0 24 24" fill="none">
<path d="M9.99003 17.0757H9.99303C10.8848 16.9677 11.6348 16.6977 12.243 16.2657C13.0485 15.6882 13.4513 14.9547 13.4513 14.0652C13.4513 13.3152 13.1565 12.6874 12.5678 12.1737C11.9775 11.6614 11.178 11.3502 10.1693 11.2422C9.82653 11.1979 9.34053 11.1657 8.71653 11.1297C7.35603 11.0472 6.47328 10.8612 6.06378 10.5694C5.91821 10.465 5.79567 10.3317 5.70378 10.1779C5.62594 10.0381 5.58564 9.88046 5.58678 9.72042C5.58678 9.29967 5.82978 8.94417 6.31953 8.66442C6.80853 8.38542 7.42653 8.24292 8.17803 8.24292C8.88978 8.24292 9.59553 8.36442 10.263 8.60292C13.1325 9.62592 15.873 13.2019 17.6978 15.7624C16.2105 16.6662 14.1848 17.2234 11.9528 17.2234C11.2958 17.2234 10.6395 17.1747 9.99003 17.0757ZM6.78078 15.6192C4.16103 14.6629 3.01428 12.2997 4.30803 10.0047C4.34403 10.3272 4.46328 10.6369 4.65528 10.9047C4.89528 11.2414 5.24778 11.5152 5.71053 11.7304C7.32678 12.4324 10.299 11.9839 11.523 12.8757C11.9348 13.1757 12.141 13.5589 12.141 14.0262C12.141 14.6134 11.8538 15.0942 11.2793 15.4677C10.7055 15.8412 9.95853 16.0279 9.03903 16.0279C8.26853 16.0236 7.50464 15.8853 6.78153 15.6192H6.78078Z" fill="#F58634"/>
<path opacity="0.5" d="M19.458 14.1829V9.7924C19.9508 10.4591 20.226 11.2039 20.226 11.9876C20.226 12.7721 19.9508 13.5154 19.458 14.1829ZM18.2213 8.5879L18.225 14.1836C16.4678 11.6891 13.842 8.5504 10.6148 7.5019C10.0565 7.31958 9.47971 7.1996 8.89502 7.14415C9.8955 6.89759 10.9224 6.77418 11.9528 6.77665C14.4578 6.77665 16.704 7.47865 18.2213 8.5879Z" fill="#F58634"/>
</svg>

<svg width="24" height="24" viewBox="0 0 24 24" fill="none"><path fill="#f58634" d="M9.99 17.076h.003q1.338-.162 2.25-.81 1.208-.867 1.208-2.2 0-1.124-.883-1.892-.885-.77-2.399-.932a23 23 0 0 0-1.452-.112q-2.04-.124-2.653-.56a1.3 1.3 0 0 1-.36-.392.9.9 0 0 1-.117-.458c0-.42.243-.776.733-1.056q.732-.42 1.858-.421c.712 0 1.418.121 2.085.36 2.87 1.023 5.61 4.599 7.435 7.16-1.488.903-3.513 1.46-5.745 1.46q-.987 0-1.963-.147m-3.21-1.457c-2.619-.956-3.766-3.32-2.472-5.614.036.322.155.632.347.9q.36.503 1.056.825c1.616.702 4.588.254 5.812 1.146q.618.45.618 1.15 0 .88-.862 1.442-.86.56-2.24.56a6.6 6.6 0 0 1-2.257-.409z"/><path fill="#f58634" d="M19.458 14.183v-4.39c.493.666.768 1.41.768 2.195s-.275 1.527-.768 2.195m-1.237-5.595.004 5.596c-1.757-2.495-4.383-5.634-7.61-6.682a8 8 0 0 0-1.72-.358c1-.246 2.027-.37 3.058-.367 2.505 0 4.751.702 6.268 1.81" opacity=".5"/></svg>
